;FLAVOR:Marlin
;TIME:1744
;Filament used: 1.49018m
;Layer height: 0.2
;Generated with Cura_SteamEngine DEV
M190 S60
M104 S200
M109 S200
M82 ;absolute extrusion mode
G21 ; set units to millimeters
G90 ; use absolute positioning
M82 ; absolute extrusion mode
M104 S200 ; set extruder temp
M140 S60 ; set bed temp
M190 S60 ; wait for bed temp
M109 S200 ; wait for extruder temp
G28 W ; home all without mesh bed level
G80 ; mesh bed leveling
G92 E0.0 ; reset extruder distance position
G1 Y-3.0 F1000.0 ; go outside print area
G1 X60.0 E9.0 F1000.0 ; intro line
G1 X100.0 E21.5 F1000.0 ; intro line
G92 E0.0 ; reset extruder distance position
G92 E0
G1 F2100 E-0.8
;LAYER_COUNT:50
;LAYER:0
M107
G0 F3600 X106.537 Y80.234 Z0.3
;TYPE:SKIRT
G1 F2100 E0
G1 X106.87 Y79.814 E0.02674
G1 X107.262 Y79.448 E0.0535
G1 X107.714 Y79.139 E0.08081
G1 X114.198 Y75.394 E0.45438
G1 X114.682 Y75.161 E0.48118
G1 X115.194 Y75.002 E0.50793
G1 X115.724 Y74.922 E0.53467
G1 X116.259 Y74.92 E0.56136
G1 X119.566 Y75.159 E0.72678
G1 X125.038 Y75.312 E0.99988
G1 X130.53 Y75.155 E1.27399
G1 X133.734 Y74.92 E1.43427
G1 X134.27 Y74.92 E1.46101
G1 X134.8 Y75.001 E1.48776
G1 X135.313 Y75.159 E1.51454
G1 X135.797 Y75.392 E1.54134
G1 X142.284 Y79.137 E1.91504
G1 X142.727 Y79.439 E1.94179
G1 X143.12 Y79.804 E1.96854
G1 X143.455 Y80.223 E1.99531
G1 X143.724 Y80.687 E2.02207
G1 X143.921 Y81.185 E2.04879
G1 X144.042 Y81.708 E2.07557
G1 X144.084 Y82.255 E2.10294
G1 X144.085 Y89.748 E2.47676
G1 X144.083 Y89.861 E2.4824
G1 X143.934 Y94.582 E2.71805
G1 X144.084 Y101.168 E3.04671
G1 X144.085 Y101.245 E3.05056
G1 X144.095 Y108.038 E3.38946
G1 X144.094 Y108.107 E3.3929
G1 X143.948 Y116.363 E3.80486
G1 X144.093 Y120.826 E4.02764
G1 X144.095 Y120.948 E4.03373
G1 X144.085 Y127.746 E4.37288
G1 X144.044 Y128.281 E4.39965
G1 X143.925 Y128.804 E4.42641
G1 X143.729 Y129.303 E4.45316
G1 X143.46 Y129.767 E4.47991
G1 X143.126 Y130.187 E4.50669
G1 X142.734 Y130.552 E4.53341
G1 X142.287 Y130.858 E4.56043
G1 X135.814 Y134.6 E4.93345
G1 X135.331 Y134.833 E4.96021
G1 X134.818 Y134.991 E4.98699
G1 X134.288 Y135.072 E5.01373
G1 X133.805 Y135.077 E5.03783
G1 X127.685 Y134.725 E5.34367
G1 X122.245 Y134.727 E5.61507
G1 X116.221 Y135.084 E5.91613
G1 X115.685 Y135.075 E5.94288
G1 X115.156 Y134.988 E5.96963
G1 X114.646 Y134.822 E5.99638
G1 X114.209 Y134.608 E6.02066
G1 X107.717 Y130.863 E6.39457
G1 X107.274 Y130.562 E6.42129
G1 X106.88 Y130.197 E6.44809
G1 X106.545 Y129.778 E6.47485
G1 X106.276 Y129.315 E6.50157
G1 X106.079 Y128.816 E6.52833
G1 X105.958 Y128.293 E6.55511
G1 X105.916 Y127.751 E6.58224
G1 X105.905 Y120.963 E6.92089
G1 X105.906 Y120.893 E6.92438
G1 X106.052 Y112.637 E7.33634
G1 X105.907 Y108.174 E7.55912
G1 X105.905 Y108.007 E7.56745
G1 X106.066 Y96.431 E8.14504
G1 X105.916 Y89.825 E8.4747
G1 X105.915 Y89.743 E8.47879
G1 X105.915 Y82.256 E8.85232
G1 X105.955 Y81.721 E8.87908
G1 X106.074 Y81.198 E8.90584
G1 X106.269 Y80.699 E8.93257
G1 X106.537 Y80.234 E8.95935
G0 F3600 X106.934 Y80.364
G1 F2100 X107.264 Y79.981 E8.98457
G1 X107.651 Y79.655 E9.00981
G1 X107.915 Y79.485 E9.02548
G1 X114.399 Y75.74 E9.39905
G1 X114.855 Y75.523 E9.42424
G1 X115.34 Y75.38 E9.44947
G1 X115.841 Y75.315 E9.47467
G1 X116.23 Y75.319 E9.49408
G1 X119.549 Y75.559 E9.6601
G1 X125.037 Y75.712 E9.934
G1 X130.548 Y75.555 E10.20906
G1 X133.763 Y75.319 E10.36989
G1 X134.269 Y75.322 E10.39513
G1 X134.768 Y75.404 E10.42036
G1 X135.247 Y75.564 E10.44556
G1 X135.597 Y75.739 E10.46508
G1 X142.084 Y79.484 E10.83878
G1 X142.5 Y79.77 E10.86396
G1 X142.867 Y80.119 E10.88923
G1 X143.173 Y80.521 E10.91444
G1 X143.413 Y80.966 E10.93966
G1 X143.579 Y81.443 E10.96486
G1 X143.669 Y81.941 E10.9901
G1 X143.684 Y82.255 E11.00579
G1 X143.685 Y89.748 E11.37962
G1 X143.683 Y89.849 E11.38466
G1 X143.534 Y94.569 E11.62025
G1 X143.684 Y101.177 E11.95001
G1 X143.685 Y101.245 E11.95341
G1 X143.695 Y108.038 E12.29231
G1 X143.694 Y108.1 E12.2954
G1 X143.547 Y116.369 E12.70801
G1 X143.693 Y120.839 E12.93114
G1 X143.695 Y120.948 E12.93658
G1 X143.685 Y127.746 E13.27573
G1 X143.644 Y128.25 E13.30096
G1 X143.525 Y128.741 E13.32617
G1 X143.329 Y129.207 E13.35139
G1 X143.063 Y129.637 E13.37661
G1 X142.732 Y130.019 E13.40183
G1 X142.345 Y130.345 E13.42708
G1 X142.087 Y130.511 E13.44238
G1 X135.614 Y134.253 E13.8154
G1 X135.157 Y134.471 E13.84066
G1 X134.672 Y134.614 E13.86589
G1 X134.171 Y134.679 E13.89109
G1 X133.828 Y134.678 E13.9082
G1 X127.691 Y134.325 E14.21489
G1 X122.221 Y134.327 E14.48779
G1 X116.197 Y134.684 E14.78885
G1 X115.692 Y134.674 E14.81405
G1 X115.194 Y134.585 E14.83929
G1 X114.717 Y134.418 E14.8645
G1 X114.409 Y134.262 E14.88173
G1 X107.917 Y130.517 E15.25564
G1 X107.5 Y130.23 E15.2809
G1 X107.134 Y129.882 E15.30609
G1 X106.827 Y129.48 E15.33133
G1 X106.588 Y129.035 E15.35653
G1 X106.421 Y128.558 E15.38174
G1 X106.332 Y128.06 E15.40698
G1 X106.316 Y127.75 E15.42247
G1 X106.305 Y120.962 E15.76112
G1 X106.306 Y120.9 E15.76422
G1 X106.453 Y112.631 E16.17683
G1 X106.307 Y108.161 E16.39995
G1 X106.305 Y108.012 E16.40739
G1 X106.466 Y96.431 E16.98522
G1 X106.316 Y89.816 E17.31533
G1 X106.315 Y89.743 E17.31897
G1 X106.315 Y82.256 E17.6925
G1 X106.355 Y81.752 E17.71773
G1 X106.474 Y81.261 E17.74293
G1 X106.668 Y80.794 E17.76816
G1 X106.934 Y80.364 E17.79339
G1 F2100 E16.99339
G0 F3600 X109.48 Y81.497
G0 X110.122 Y82.606
G0 X113.992 Y86.341
G0 X115.331 Y87.565
G0 X115.37 Y87.473
;TYPE:WALL-INNER
G1 F2100 E17.79339
G1 X115.624 Y87.556 E17.80672
G1 X115.882 Y87.597 E17.81975
G1 X116.15 Y87.595 E17.83312
G1 X116.408 Y87.548 E17.8462
G1 X116.657 Y87.46 E17.85938
G1 X116.888 Y87.332 E17.87256
G1 X117.097 Y87.167 E17.88584
G1 X117.274 Y86.969 E17.89909
G1 X117.415 Y86.748 E17.91217
G1 X117.519 Y86.505 E17.92536
G1 X117.581 Y86.249 E17.9385
G1 X117.601 Y85.985 E17.95171
G1 X117.577 Y85.72 E17.96498
G1 X117.509 Y85.464 E17.9782
G1 X117.4 Y85.223 E17.99139
G1 X117.253 Y85.005 E18.00451
G1 X117.073 Y84.811 E18.01771
G1 X116.863 Y84.651 E18.03088
G1 X116.63 Y84.527 E18.04405
G1 X116.376 Y84.444 E18.05738
G1 X116.118 Y84.403 E18.07042
G1 X115.85 Y84.405 E18.08379
G1 X115.592 Y84.452 E18.09687
G1 X115.343 Y84.54 E18.11005
G1 X115.112 Y84.668 E18.12322
G1 X114.903 Y84.833 E18.13651
G1 X114.726 Y85.031 E18.14976
G1 X114.585 Y85.252 E18.16284
G1 X114.481 Y85.495 E18.17602
G1 X114.419 Y85.751 E18.18916
G1 X114.399 Y86.015 E18.20237
G1 X114.423 Y86.28 E18.21565
G1 X114.491 Y86.536 E18.22886
G1 X114.6 Y86.777 E18.24206
G1 X114.747 Y86.995 E18.25518
G1 X114.927 Y87.189 E18.26838
G1 X115.137 Y87.349 E18.28155
G1 X115.37 Y87.473 E18.29472
G0 F3600 X115.331 Y87.565
G0 X116.153 Y87.634
G0 X116.673 Y87.496
G0 X117.037 Y87.253
G0 X121.809 Y82.646
G0 X121.895 Y82.596
G1 F2100 X121.895 Y89.404 E18.63437
G1 X116 Y92.808 E18.97398
G1 X110.105 Y89.404 E19.3136
G1 X110.105 Y82.596 E19.65325
G1 X116 Y79.192 E19.99286
G1 X121.895 Y82.596 E20.33248
G0 F3600 X122.295 Y82.365
;TYPE:WALL-OUTER
G1 F2100 X122.295 Y89.635 E20.69518
G1 X116 Y93.269 E21.05781
G1 X109.705 Y89.635 E21.42045
G1 X109.705 Y82.365 E21.78315
G1 X116 Y78.731 E22.14578
G1 X122.295 Y82.365 E22.50842
G0 F3600 X122.295 Y82.565
G0 X121.809 Y82.646
G0 X116.91 Y87.365
G0 X116.418 Y87.586
G0 X116.113 Y87.614
G0 X115.372 Y87.578
G0 X115.528 Y87.104
G1 F2100 X115.718 Y87.166 E22.51839
G1 X115.912 Y87.197 E22.52819
G1 X116.112 Y87.195 E22.53817
G1 X116.305 Y87.16 E22.54795
G1 X116.493 Y87.094 E22.55789
G1 X116.666 Y86.998 E22.56776
G1 X116.822 Y86.875 E22.57767
G1 X116.954 Y86.727 E22.58757
G1 X117.06 Y86.561 E22.59739
G1 X117.138 Y86.378 E22.60732
G1 X117.185 Y86.186 E22.61718
G1 X117.2 Y85.988 E22.62709
G1 X117.182 Y85.79 E22.63701
G1 X117.131 Y85.599 E22.64687
G1 X117.049 Y85.418 E22.65678
G1 X116.939 Y85.254 E22.66664
G1 X116.804 Y85.109 E22.67652
G1 X116.646 Y84.989 E22.68642
G1 X116.472 Y84.896 E22.69626
G1 X116.282 Y84.834 E22.70623
G1 X116.088 Y84.803 E22.71603
G1 X115.888 Y84.805 E22.72601
G1 X115.695 Y84.84 E22.7358
G1 X115.507 Y84.906 E22.74574
G1 X115.334 Y85.002 E22.75561
G1 X115.178 Y85.125 E22.76552
G1 X115.046 Y85.273 E22.77541
G1 X114.94 Y85.439 E22.78524
G1 X114.862 Y85.622 E22.79516
G1 X114.815 Y85.814 E22.80503
G1 X114.8 Y86.012 E22.81493
G1 X114.818 Y86.21 E22.82485
G1 X114.869 Y86.401 E22.83472
G1 X114.951 Y86.582 E22.84463
G1 X115.061 Y86.746 E22.85448
G1 X115.196 Y86.891 E22.86436
G1 X115.354 Y87.011 E22.87426
G1 X115.528 Y87.104 E22.88411
G0 F3600 X115.718 Y87.166
G0 X115.532 Y87.936
;TYPE:SKIN
G1 F2100 X115.853 Y87.987 E22.90032
G1 X116.187 Y87.985 E22.91699
G1 X116.509 Y87.926 E22.93332
G1 X116.817 Y87.817 E22.94962
G1 X117.105 Y87.658 E22.96603
G1 X117.366 Y87.452 E22.98262
G1 X117.586 Y87.205 E22.99912
G1 X117.761 Y86.931 E23.01534
G1 X117.89 Y86.628 E23.03177
G1 X117.967 Y86.31 E23.04809
G1 X117.993 Y85.983 E23.06446
G1 X117.963 Y85.652 E23.08104
G1 X117.878 Y85.333 E23.09751
G1 X117.742 Y85.032 E23.11399
G1 X117.559 Y84.762 E23.13026
G1 X117.336 Y84.521 E23.14664
G1 X117.074 Y84.322 E23.16306
G1 X116.784 Y84.167 E23.17946
G1 X116.468 Y84.064 E23.19605
G1 X116.147 Y84.013 E23.21226
G1 X115.813 Y84.015 E23.22892
G1 X115.491 Y84.074 E23.24526
G1 X115.183 Y84.183 E23.26156
G1 X114.895 Y84.342 E23.27797
G1 X114.634 Y84.548 E23.29456
G1 X114.414 Y84.795 E23.31106
G1 X114.239 Y85.069 E23.32728
G1 X114.11 Y85.372 E23.34371
G1 X114.033 Y85.69 E23.36003
G1 X114.007 Y86.017 E23.3764
G1 X114.037 Y86.348 E23.39298
G1 X114.122 Y86.667 E23.40945
G1 X114.258 Y86.968 E23.42593
G1 X114.441 Y87.238 E23.4422
G1 X114.664 Y87.479 E23.45858
G1 X114.926 Y87.678 E23.475
G1 X115.216 Y87.833 E23.4914
G1 X115.532 Y87.936 E23.50798
G0 F3600 X116 Y92.357
G1 F2100 X110.495 Y89.179 E23.82511
G1 X110.495 Y82.821 E24.14231
G1 X116 Y79.643 E24.45944
G1 X121.505 Y82.821 E24.77656
G1 X121.505 Y89.179 E25.09376
G1 X116 Y92.357 E25.41089
G0 F3600 X110.674 Y88.612
G1 F2100 X111.77 Y89.708 E25.48822
G1 X111.84 Y89.778
G0 F3600 X113.107 Y90.479
G1 F2100 X110.674 Y88.046 E25.65988
G1 X110.604 Y87.976
G0 F3600 X110.674 Y87.481
G1 F2100 X114.444 Y91.251 E25.92587
G1 X114.514 Y91.321
G0 F3600 X115.781 Y92.022
G1 F2100 X110.674 Y86.915 E26.2862
G1 X110.604 Y86.845
G0 F3600 X110.674 Y86.349
G1 F2100 X116.299 Y91.974 E26.68307
G1 X116.369 Y92.044
G0 F3600 X116.658 Y91.768
G1 F2100 X110.674 Y85.784 E27.10528
G1 X110.604 Y85.714
G0 F3600 X110.674 Y85.218
G1 F2100 X117.016 Y91.561 E27.55278
G1 X117.086 Y91.631
G0 F3600 X117.375 Y91.353
G1 F2100 X110.674 Y84.652 E28.02557
G1 X110.604 Y84.582
G0 F3600 X110.674 Y84.087
G1 F2100 X117.733 Y91.146 E28.52362
G1 X117.803 Y91.216
G0 F3600 X118.093 Y90.94
G1 F2100 X115.155 Y88.002 E28.73091
G1 X115.085 Y87.932
G0 F3600 X115.885 Y88.167
G1 F2100 X118.451 Y90.733 E28.91196
G1 X118.521 Y90.803
G0 F3600 X118.81 Y90.525
G1 F2100 X116.41 Y88.126 E29.08125
G1 X116.34 Y88.056
G0 F3600 X116.847 Y87.997
G1 F2100 X119.168 Y90.318 E29.24501
G1 X119.238 Y90.388
G0 F3600 X119.527 Y90.111
G1 F2100 X117.215 Y87.8 E29.4081
G1 X117.145 Y87.73
G0 F3600 X117.524 Y87.543
G1 F2100 X119.886 Y89.905 E29.57475
G1 X119.956 Y89.975
G0 F3600 X120.244 Y89.697
G1 F2100 X117.78 Y87.233 E29.7486
G1 X117.71 Y87.163
G0 F3600 X117.982 Y86.869
G1 F2100 X120.603 Y89.49 E29.93353
G1 X120.673 Y89.56
G0 F3600 X120.961 Y89.283
G1 F2100 X118.119 Y86.44 E30.13408
G1 X118.049 Y86.37
G0 F3600 X118.167 Y85.923
G1 F2100 X121.321 Y89.077 E30.35661
G1 X121.391 Y89.147
G0 F3600 X121.323 Y88.514
G1 F2100 X118.018 Y85.209 E30.5898
G1 X117.948 Y85.139
G0 F3600 X116.788 Y83.978
G1 F2100 X113.883 Y81.073 E30.79476
G1 X113.813 Y81.003
G0 F3600 X114.241 Y80.866
G1 F2100 X121.323 Y87.948 E31.29443
G1 X121.393 Y88.018
G0 F3600 X121.323 Y87.382
G1 F2100 X114.6 Y80.658 E31.76881
G1 X114.53 Y80.588
G0 F3600 X114.958 Y80.451
G1 F2100 X121.323 Y86.817 E32.21793
G1 X121.393 Y86.887
G0 F3600 X121.323 Y86.251
G1 F2100 X115.317 Y80.245 E32.64169
G1 X115.247 Y80.175
G0 F3600 X115.676 Y80.038
G1 F2100 X121.323 Y85.685 E33.04012
G1 X121.393 Y85.755
G0 F3600 X121.323 Y85.12
G1 F2100 X116.13 Y79.926 E33.40655
G1 X116.06 Y79.856
G0 F3600 X117.468 Y80.698
G1 F2100 X121.323 Y84.554 E33.67857
G1 X121.393 Y84.624
G0 F3600 X121.323 Y83.988
G1 F2100 X118.805 Y81.47 E33.85623
G1 X118.735 Y81.4
G0 F3600 X120.143 Y82.242
G1 F2100 X121.323 Y83.423 E33.93952
G1 X121.393 Y83.493
G0 F3600 X116.077 Y83.833
G1 F2100 X113.523 Y81.279 E34.11972
G1 X113.453 Y81.209
G0 F3600 X113.165 Y81.486
G1 F2100 X115.556 Y83.878 E34.28845
G1 X115.626 Y83.948
G0 F3600 X115.124 Y84.012
G1 F2100 X112.806 Y81.694 E34.452
G1 X112.736 Y81.624
G0 F3600 X112.448 Y81.901
G1 F2100 X114.763 Y84.216 E34.61534
G1 X114.833 Y84.286
G0 F3600 X114.456 Y84.475
G1 F2100 X112.089 Y82.107 E34.78238
G1 X112.019 Y82.037
G0 F3600 X111.73 Y82.315
G1 F2100 X114.204 Y84.789 E34.95693
G1 X114.274 Y84.859
G0 F3600 X114.006 Y85.156
G1 F2100 X111.372 Y82.522 E35.14277
G1 X111.302 Y82.452
G0 F3600 X111.013 Y82.729
G1 F2100 X113.872 Y85.588 E35.34449
G1 X113.942 Y85.658
G0 F3600 X113.834 Y86.115
G1 F2100 X110.674 Y82.955 E35.56745
G1 X110.604 Y82.885
G0 F3600 X110.674 Y83.521
G1 F2100 X114.009 Y86.856 E35.80275
G1 X114.079 Y86.926
G1 F2100 E35.00275
G0 F3600 X115.615 Y87.594
G0 X115.767 Y87.605
G0 X121.875 Y87.565
G0 X123.16 Y87.565
G0 X126.84 Y87.565
G0 X128.125 Y87.565
G0 X133.331 Y87.565
G0 X133.37 Y87.473
;TYPE:WALL-INNER
G1 F2100 E35.80275
G1 X133.624 Y87.556 E35.81608
G1 X133.882 Y87.597 E35.82911
G1 X134.15 Y87.595 E35.84248
G1 X134.408 Y87.548 E35.85557
G1 X134.657 Y87.46 E35.86874
G1 X134.888 Y87.332 E35.88192
G1 X135.097 Y87.167 E35.8952
G1 X135.274 Y86.969 E35.90845
G1 X135.415 Y86.748 E35.92153
G1 X135.519 Y86.505 E35.93472
G1 X135.581 Y86.249 E35.94786
G1 X135.601 Y85.985 E35.96107
G1 X135.577 Y85.72 E35.97434
G1 X135.509 Y85.464 E35.98756
G1 X135.4 Y85.223 E36.00076
G1 X135.253 Y85.005 E36.01387
G1 X135.073 Y84.811 E36.02708
G1 X134.863 Y84.651 E36.04025
G1 X134.63 Y84.527 E36.05342
G1 X134.376 Y84.444 E36.06675
G1 X134.118 Y84.403 E36.07978
G1 X133.85 Y84.405 E36.09315
G1 X133.592 Y84.452 E36.10623
G1 X133.343 Y84.54 E36.11941
G1 X133.112 Y84.668 E36.13259
G1 X132.903 Y84.833 E36.14587
G1 X132.726 Y85.031 E36.15912
G1 X132.585 Y85.252 E36.1722
G1 X132.481 Y85.495 E36.18539
G1 X132.419 Y85.751 E36.19853
G1 X132.399 Y86.015 E36.21174
G1 X132.423 Y86.28 E36.22501
G1 X132.491 Y86.536 E36.23823
G1 X132.6 Y86.777 E36.25142
G1 X132.747 Y86.995 E36.26454
G1 X132.927 Y87.189 E36.27774
G1 X133.137 Y87.349 E36.29091
G1 X133.37 Y87.473 E36.30408
G0 F3600 X133.331 Y87.565
G0 X134.153 Y87.634
G0 X134.673 Y87.496
G0 X135.037 Y87.253
G0 X139.809 Y82.646
G0 X139.895 Y82.596
G1 F2100 X139.895 Y89.404 E36.64373
G1 X134 Y92.808 E36.98335
G1 X128.105 Y89.404 E37.32296
G1 X128.105 Y82.596 E37.66261
G1 X134 Y79.192 E38.00223
G1 X139.895 Y82.596 E38.34184
G0 F3600 X140.295 Y82.365
;TYPE:WALL-OUTER
G1 F2100 X140.295 Y89.635 E38.70454
G1 X134 Y93.269 E39.06718
G1 X127.705 Y89.635 E39.42981
G1 X127.705 Y82.365 E39.79251
G1 X134 Y78.731 E40.15515
G1 X140.295 Y82.365 E40.51778
G0 F3600 X140.295 Y82.565
G0 X139.809 Y82.646
G0 X134.91 Y87.365
G0 X134.418 Y87.586
G0 X134.113 Y87.614
G0 X133.372 Y87.578
G0 X133.528 Y87.104
G1 F2100 X133.718 Y87.166 E40.52775
G1 X133.912 Y87.197 E40.53755
G1 X134.112 Y87.195 E40.54753
G1 X134.305 Y87.16 E40.55732
G1 X134.493 Y87.094 E40.56726
G1 X134.666 Y86.998 E40.57713
G1 X134.822 Y86.875 E40.58704
G1 X134.954 Y86.727 E40.59693
G1 X135.06 Y86.561 E40.60676
G1 X135.138 Y86.378 E40.61668
G1 X135.185 Y86.186 E40.62654
G1 X135.2 Y85.988 E40.63645
G1 X135.182 Y85.79 E40.64637
G1 X135.131 Y85.599 E40.65623
G1 X135.049 Y85.418 E40.66615
G1 X134.939 Y85.254 E40.676
G1 X134.804 Y85.109 E40.68588
G1 X134.646 Y84.989 E40.69578
G1 X134.472 Y84.896 E40.70562
G1 X134.282 Y84.834 E40.7156
G1 X134.088 Y84.803 E40.7254
G1 X133.888 Y84.805 E40.73538
G1 X133.695 Y84.84 E40.74516
G1 X133.507 Y84.906 E40.7551
G1 X133.334 Y85.002 E40.76497
G1 X133.178 Y85.125 E40.77488
G1 X133.046 Y85.273 E40.78478
G1 X132.94 Y85.439 E40.7946
G1 X132.862 Y85.622 E40.80453
G1 X132.815 Y85.814 E40.81439
G1 X132.8 Y86.012 E40.8243
G1 X132.818 Y86.21 E40.83422
G1 X132.869 Y86.401 E40.84408
G1 X132.951 Y86.582 E40.85399
